src/symbolic/status/network-cellular-4g-symbolic.svg

<svg width="16" height="16" version="1.1" xmlns="http://www.w3.org/2000/svg">
 <path d="m2 0c-1.108 0-2 0.892-2 2v12c0 1.108 0.892 2 2 2h12c1.108 0 2-0.892 2-2v-12c0-1.108-0.892-2-2-2h-12zm0 3h2v4h1v-4h2v10h-2v-4h-1c-2 0-2-2-2-2v-4zm8 0h2c2 0 2 2 2 2v1h-2v-1h-2v6h2v-2h-1v-1.9688h3v3.9375s0 2.0312-2 2.0312h-2s-2 0-2-2v-6c0-2 2-2 2-2z" fill="#555555" stroke-linecap="round" stroke-linejoin="round" stroke-width="1.9994" style="paint-order:markers stroke fill"/>
</svg>

<svg xmlns="http://www.w3.org/2000/svg" width="16" height="16" enable-background="new"><defs><filter id="a" color-interpolation-filters="sRGB"><feBlend mode="darken" in2="BackgroundImage"/></filter></defs><path d="M2 1S0 1 0 3.062V13c0 2 2 2 2 2h12c2 0 2-2 2-2V3s0-2-2-2zm0 2h2v4h1V3h2v10H5V9H4C2 9 2 7 2 7zm8 0h2c2 0 2 2 2 2v1h-2V5h-2v6h2V9h-1V7.031L13 7l1 .031v3.938S14 13 12 13h-2s-2 0-2-2V5c0-2 2-2 2-2z" color="#5d656b" fill="#5d656b"/></svg>
